X:1
T:Amang the Trees
M:2/4
L:1/8
K:G
 z2 z D| GG BG| cA BG|A/2-A/2 Ac c| A=F FA| GG BG| cA BG| A/2A/2 A d2|\
 BG Ge| fd d- e/2f/2| gg ag| fd d- c/2_B/2| AF F e/2e/2| GG BG| cA BG|\
 A- B/2c/2d/2-c/2B/2-A/2| BG G z|
